X:3
T:Grönsommarlåt
R:Polska
D:Hia hia ([[Grupper/Hoven Droven]])
N:Komponerad av Pedro Blom basist i Hoven Droven
O:Jämtland
Z:Håkan Lidén
M:3/4
L:1/8
K:A
A>c e2 a2 | gb/g/ a>e- e>c | df/d/ cB/A/ B>G | A>c e3 c/d/ |
(3e2 e2 e2 f>g | (3a2 c'2 a2 e>c | (3d2 f2 d2 cB/A/ | B>G A4 :|
|: e>d c>A c>e | e>d c>A c>e | B>c (3ded (3cBA | G>g g>f f>e |
e>d c>A c>e | e>d c>A c>e | B>c (3ded (3cBA | (3GBG A4 :|]

